assets/svg/blacksec1-pinkstar.svg

<svg width="499" height="501" viewBox="0 0 499 501" fill="none" xmlns="http://www.w3.org/2000/svg">
<path d="M249.5 0.796875L276.271 115.939L344.98 19.827L325.738 136.47L425.923 74.0202L363.598 174.406L480.008 155.126L384.088 223.972L499 250.797L384.088 277.622L480.008 346.468L363.598 327.188L425.923 427.574L325.738 365.124L344.98 481.767L276.271 385.655L249.5 500.797L222.729 385.655L154.02 481.767L173.262 365.124L73.0769 427.574L135.402 327.188L18.9921 346.468L114.912 277.622L0 250.797L114.912 223.972L18.9921 155.126L135.402 174.406L73.0769 74.0202L173.262 136.47L154.02 19.827L222.729 115.939L249.5 0.796875Z" fill="#F980E6"/>
<path d="M196.257 250.064C196.257 233.216 183.441 221.048 163.569 221.048C143.697 221.048 130.953 233.216 130.953 250.064C130.953 266.84 143.697 279.008 163.569 279.008C183.441 279.008 196.257 266.84 196.257 250.064ZM186.393 250.064C186.393 262.376 177.177 271.88 163.569 271.88C150.033 271.88 140.817 262.376 140.817 250.064C140.817 237.68 150.033 228.176 163.569 228.176C177.177 228.176 186.393 237.68 186.393 250.064ZM244.594 271.88L221.482 222.056H207.082V278H216.442V231.776L238.474 278H250.714L272.746 231.776V278H282.106V222.056H267.706L244.594 271.88ZM353.363 242.072C353.363 242.072 350.051 221.048 324.059 221.048C304.187 221.048 292.883 233.216 292.883 250.064C292.883 266.84 304.187 279.008 321.899 279.008C339.179 279.008 343.067 267.2 343.067 267.2V278H352.427V249.632H321.971V255.752H343.067C343.067 255.752 341.987 271.88 323.339 271.88C310.523 271.88 302.747 262.376 302.747 250.064C302.747 237.68 310.523 228.176 324.059 228.176C342.059 228.176 343.715 244.952 343.715 244.952L353.363 242.072Z" fill="#151515"/>
</svg>

<?xml version="1.0" encoding="utf-8"?>
<!-- Generator: Adobe Illustrator 25.0.1, SVG Export Plug-In . SVG Version: 6.00 Build 0)  -->
<svg version="1.1" id="Livello_1" xmlns="http://www.w3.org/2000/svg" xmlns:xlink="http://www.w3.org/1999/xlink" x="0px" y="0px"
	 viewBox="0 0 499 501" style="enable-background:new 0 0 499 501;" xml:space="preserve">
<style type="text/css">
	.st0{fill:#F980E6;}
	.st1{fill:#FFFFFF;}
</style>
<path class="st0" d="M249.5,0.8l26.8,115.1L345,19.8l-19.2,116.6L425.9,74l-62.3,100.4L480,155.1L384.1,224L499,250.8l-114.9,26.8
	l95.9,68.8l-116.4-19.3l62.3,100.4l-100.2-62.5L345,481.8l-68.7-96.1l-26.8,115.1l-26.8-115.1L154,481.8l19.2-116.6L73.1,427.6
	l62.3-100.4L19,346.5l95.9-68.8L0,250.8L114.9,224L19,155.1l116.4,19.3L73.1,74l100.2,62.4L154,19.8l68.7,96.1L249.5,0.8z"/>
<path class="st1" d="M196.3,250.1c0-16.8-12.8-29-32.7-29s-32.6,12.2-32.6,29c0,16.8,12.7,28.9,32.6,28.9S196.3,266.8,196.3,250.1z
	 M186.4,250.1c0,12.3-9.2,21.8-22.8,21.8c-13.5,0-22.8-9.5-22.8-21.8c0-12.4,9.2-21.9,22.8-21.9
	C177.2,228.2,186.4,237.7,186.4,250.1z M244.6,271.9l-23.1-49.8h-14.4V278h9.4v-46.2l22,46.2h12.2l22-46.2V278h9.4v-55.9h-14.4
	L244.6,271.9z M353.4,242.1c0,0-3.3-21-29.3-21c-19.9,0-31.2,12.2-31.2,29c0,16.8,11.3,28.9,29,28.9c17.3,0,21.2-11.8,21.2-11.8V278
	h9.4v-28.4H322v6.1h21.1c0,0-1.1,16.1-19.7,16.1c-12.8,0-20.6-9.5-20.6-21.8c0-12.4,7.8-21.9,21.3-21.9c18,0,19.7,16.8,19.7,16.8
	L353.4,242.1z"/>
</svg>
